X:1
T:Title
%%score { ( 1 3 ) | ( 2 4 ) }
L:1/8
M:3/4
K:Db
V:1 treble nm="Grand Piano"
V:3 treble 
V:2 bass 
V:4 bass 
V:1
 z2 z2[Q:1/4=104] A2 | [FA]2 F2 [EG]2 | [FA]2 F2 [EG]2 | [FA]2 [Fd]2 [Ac]2 | [GB]4 [GB]2 | %5
 [GB]2 E2 [DF]2 | [EG]2 [Ac]2 [GB]2 | [FA]6 | F4 [GA]2 | [FA]2 F2 [EG]2 | [FA]2 F2 [EG]2 | %11
 [FA]2 [Fd]2 [Ac]2 | [GB]4 [GB]2 | [Bd]2 [Ac]2 [GB]2 | [FA]2 [DF]2[K:bass] [G,CE]2 | [F,D]6- | %16
[M:2/4] [F,D]4 |[M:1/4][K:treble][Q:1/4=108] [DFA]2 |[M:3/4] e2 e2 d2 | c2 c2 B2 | %20
 [FA]2 [FA]2 [Gd]2 | [FA]4 [FA]2 | A2 G2 F2 | G2 c2 B2 | [FA]6 |[M:2/4] [DF]4 |[M:1/4] [DFA]2 | %27
[M:3/4] e2 e2 d2 | c2 c2 B2 | [FA]2 [FA]2 [Gd]2 | [FA]4 [FA]2 | [GB]2 [Ge]2 [Gd]2 | c2 f2 e2 | %33
 d2- [Ad-]2 [Gd-]2 |[M:2/4] [Fd]4 |] %35
V:2
 z2 z2 F2 | D,A, DA, CA, | D,A, DA, CA, | D,A, DA, DA, | G,B, DB, DB, | A,,A, CA, CA, | %6
 A,,A, CA, CA, | D,A, DA, DA, | z2 D2 z2 | D,A, DA, CA, | D,A, DA, CA, | D,A, DA, DA, | %12
 G,B, DB, DB, | G,B, DB, DB, | A,,D, F,A, A,,2 | D,6- |[M:2/4] D,4 |[M:1/4] D,2 | %18
[M:3/4][K:treble] [A,CG]2 [A,CG]2 [A,DF]2 | [A,EG]2 [A,EG]2 [A,CG]2 | [D,D]2 [D,D]2 [D,B,]2 | %21
 [D,A,]4 [D,D]2 | [A,CF]2 [A,CE]2 [A,C=D]2 | [A,CE]2 [A,EG]2 [A,CG]2 | z2 C2 B,2 |[M:2/4] A,4 | %26
[M:1/4] D,2 |[M:3/4][K:treble] [A,CG]2 [A,CG]2 [A,DF]2 | [A,EG]2 [A,EG]2 [A,CG]2 | %29
 [D,D]2 [D,D]2 [D,B,]2 | [D,A,]4 [D,D]2 | [G,D]2 [G,B,]2 [E,E]2 | [A,EG]2 [A,B,G]2 [A,CG]2 | %33
 z2 C2 B,2 |[M:2/4] A,4 |] %35
V:3
 x6 | x6 | x6 | x6 | x6 | x6 | x6 | x6 | D2 z2 z2 | x6 | x6 | x6 | x6 | x6 | x4[K:bass] x2 | x6 | %16
[M:2/4] x4 |[M:1/4][K:treble] x2 |[M:3/4] x6 | x6 | x6 | x6 | x6 | x6 | D2 z2 z2 |[M:2/4] x4 | %26
[M:1/4] x2 |[M:3/4] x6 | x6 | x6 | x6 | x6 | x6 | [DF]2 z2 z2 |[M:2/4] x4 |] %35
V:4
 x6 | x6 | x6 | x6 | x6 | x6 | x6 | x6 | D,A, z A, CA, | x6 | x6 | x6 | x6 | x6 | x6 | x6 | %16
[M:2/4] x4 |[M:1/4] x2 |[M:3/4][K:treble] x6 | x6 | x6 | x6 | x6 | x6 | D,6- |[M:2/4] D,4 | %26
[M:1/4] x2 |[M:3/4][K:treble] x6 | x6 | x6 | x6 | x6 | x6 | D,6- |[M:2/4] D,4 |] %35

